X: 29
T:Talking Dog
M:6/8
L:1/8
Q:120
C:Peter Cape
K:D
f2f|"D"f3d3|d2f2-f2|"A"f2ee2d|e6|e2ee2e|c3-c2A|"D"d2Ad2e|!
f3-f2f|"G"g3g3|b3-b2b|"D"a2ba2g|f3-f2d|"A"e3e2d|c3-c2A|"D"d2ef2e|!
d3"Chorus:"c2d|"A"e3A2A|A2A-A2A|"D"f2ef2e|d3-d2d|"A"e2ee2d|!
c2AA2A|"D"d2ef2e|d3-d3|"G"z6|"A"z6|"D"z6|z3|
